X:1
T:V'la L'bon Vent
M:2/4
L:1/8
K:C
 EA A2| E A/2A/2 A2| EA AA/2-B/2| cc BA| EA A2| E A/2A/2 A2| EA AA/2-B/2|\
 cB AE| Ac BA| GB AE| Ac BA| GB AE| Ac BA| AGG-E| EA A2| EA/2-A/2 A2|\
 EA AA/2-B/2| cc BA| EA A2| E A/2A/2 A2| EA AA/2-B/2| cB| A2||
